X: 2011
T: Yâd ile Geçmiş Zamanı...
C: Şevki Bey
O: Turkey
F: http://compmusic.upf.edu/node/140
N: ussak--sarki--curcuna--yad_ile--sevki_bey
N: makam= ussak
N: form= sarki
N: usul= curcuna = 10/8
M: 10/8
L: 1/16
K: C _2/4B   
Q: 1/4=186
%%MIDI tuningsystem comma53
e2f2 g2a2 g2f2 e2f6  | e2f2 g2a4g2 f2e4d2  | \
w:  ARANAĞME  |   | 
d2c2 d2e2 f2e2 d2c2 B2A2  | 
w:   | 
A2G2 A2B2 c2d2 e2^3/4f2 g2a2  | a2g2 c'2b2 a2g2 f2e2 d2c2  | \
w:   |   | 
B2A2 d2c2 B2B2 A2A4z2  | 
w:   | 
e2f2 g2a2 g2f2 e2f6  | e2f2 g2a4g2 f2e4d2  | \
w:  ARANAĞME  |   | 
d2c2 d2e2 f2e2 d2c2 B2A2  | 
w:   | 
A2G2 A2B2 c2d2 e2^3/4f2 g2a2  | a2g2 c'2b2 a2g2 f2e2 d2c2  | \
w:   |   | 
B2A2 d2c2 B2B2 A2A4z2  | 
w:   | 
G6A4B4c4B2  | A6c4B2 A2G2 ^3/4F2G2  | \
w:  Yâd_ i le  geç  |  miş  za ma  | 
A18z2  | d4 c2d2 e2{f}e8-e2  | e2f2 g2f2 e2d4c4B2  | 
w:  nı   |  ağ *  la *  *  rım    |   | 
B4 A2G2 d2{e}d8-d2  | d4 f2e2 d2c2 B2A6  | \
w:  ağ *  la *  *  rım    |  SAZ  | 
G6A4B4c4B2  | A6c4B2 A2G2 ^3/4F2G2  | 
w:  Yâd_ i le  geç  |  miş  za ma  | 
A18z2  | d4 c2d2 e2{f}e8-e2  | e2f2 g2f2 e2d4c4B2  | \
w:  nı   |  ağ *  la *  *  rım    |   | 
B4 A2G2 d2{e}d8-d2  | 
w:  ağ *  la *  *  rım    | 
e2g2 f2e2 d2e2 c2d6  | d6g2 ^f2g2 e2e4d2  | \
w:  SAZ  |  Giz li *  dir  *  der  | 
d6g2 ^f2g2 e2e4d2  | 
w:  dim  ni *  ha  | 
e2d2 e4 d2d2 c2d4c2  | e4 d2c2 B2c8-c2  | \
w:  nî   |  ağ *  la *  rım    | 
c2B2 c2d2 B2B2 A2A2 B2c2  | 
w:   | 
B4 A2G2 A2{B}A8-A2  | e2g2 f2e2 d2e2 c2d6  | \
w:  ağ *  la *  *  rım    |  SAZ  | 
d6g2 ^f2g2 e2e4d2  | 
w:  Giz li *  dir  *  der  | 
d6g2 ^f2g2 e2e4d2  | e2d2 e4 d2d2 c2d4c2  | \
w:  dim  ni *  ha  |  nî   | 
e4 d2c2 B2c8-c2  | 
w:  ağ *  la *  rım    | 
c2B2 c2d2 B2B2 A2A2 B2c2  | B4 A2G2 A2{B}A8-A2  | \
w:   |  ağ *  la *  *  rım    | 
A4 g2^3/4f2 e2f2 g2a6  | 
w:  SAZ  | 
g6a4a4a4e2  | e4 d2d2 c2c2 B2B4A2  | \
w:  Sak la yıp  eşk_  |  i  *  re *  vâ  | 
{B}A18z2  | d4 c2d2 e2{f}e8-e2  | 
w:  *  nı   |  ağ *  la *  *  rım    | 
e2f2 g2f2 e2d4c4B2  | B4 A2G2 d2{e}d8-d2  | \
w:   |  ağ *  la *  *  rım    | 
d4 g2^3/4f2 e2f2 g2a6  | 
w:  SAZ  | 
g6a4a4a4e2  | e4 d2d2 c2c2 B2B4A2  | \
w:  Sak la yıp  eşk_  |  i  *  re *  vâ  | 
{B}A18z2  | d4 c2d2 e2{f}e8-e2  | 
w:  *  nı   |  ağ *  la *  *  rım    | 
e2f2 g2f2 e2d4c4B2  | B4 A2G2 d2{e}d8-d2  | \
w:   |  ağ *  la *  *  rım    | 
e2g2 f2e2 d2e2 c2d6  | 
w:  SAZ  | 
d6g2 ^f2g2 e2e4d2  | d6g2 ^f2g2 e2e4d2  | \
w:  Giz li *  dir  *  der  |  dim  ni *  ha  | 
e2d2 e4 d2d2 c2d4c2  | 
w:  nî   | 
e4 d2c2 B2c8-c2  | c2B2 c2d2 B2B2 A2A2 B2c2  | \
w:  ağ *  la *  rım    |   | 
B4 A2G2 A2{B}A8-A2  | 
w:  ağ *  la *  *  rım    | 
|


